src/assets/bold/lm-file-checked-bold.svg

<svg width="24" height="24" viewBox="0 0 24 24" fill="none" xmlns="http://www.w3.org/2000/svg" fill="currentColor">
<path fill-rule="evenodd" clip-rule="evenodd" d="M6.85698 3.46286C6.50234 3.46286 6.16224 3.60373 5.91147 3.8545C5.66071 4.10526 5.51983 4.44537 5.51983 4.8V19.2C5.51983 19.5546 5.66071 19.8947 5.91147 20.1455C6.16224 20.3963 6.50234 20.5371 6.85698 20.5371H17.1427C17.4973 20.5371 17.8374 20.3963 18.0882 20.1455C18.339 19.8947 18.4798 19.5546 18.4798 19.2V8.60571H15.0855C14.6218 8.60571 14.177 8.42149 13.8491 8.09357C13.5212 7.76565 13.337 7.32089 13.337 6.85714V3.46286H6.85698ZM14.777 4.48109L17.4616 7.16571H15.0855C15.0037 7.16571 14.9252 7.13321 14.8674 7.07534C14.8095 7.01747 14.777 6.93898 14.777 6.85714V4.48109ZM4.89324 2.83626C5.41406 2.31545 6.12043 2.02286 6.85698 2.02286H14.057C14.2479 2.02286 14.4311 2.09871 14.5661 2.23374L19.709 7.3766C19.844 7.51162 19.9198 7.69476 19.9198 7.88571V19.2C19.9198 19.9365 19.6272 20.6429 19.1064 21.1637C18.5856 21.6846 17.8792 21.9771 17.1427 21.9771H6.85698C6.12043 21.9771 5.41406 21.6846 4.89324 21.1637C4.37242 20.6429 4.07983 19.9365 4.07983 19.2V4.8C4.07983 4.06346 4.37242 3.35708 4.89324 2.83626ZM15.5947 12.5195C15.8758 12.8006 15.8758 13.2565 15.5947 13.5377L11.4804 17.652C11.1992 17.9332 10.7433 17.9332 10.4621 17.652L8.405 15.5948C8.12383 15.3137 8.12383 14.8578 8.405 14.5766C8.68618 14.2954 9.14206 14.2954 9.42324 14.5766L10.9713 16.1246L14.5764 12.5195C14.8576 12.2383 15.3135 12.2383 15.5947 12.5195Z" fill="black"/>
</svg>

<svg xmlns="http://www.w3.org/2000/svg" width="24" height="24" fill="currentColor" viewBox="0 0 24 24">
  <path fill-rule="evenodd" d="M6.857 3.463A1.337 1.337 0 0 0 5.52 4.8v14.4a1.337 1.337 0 0 0 1.337 1.337h10.286A1.337 1.337 0 0 0 18.48 19.2V8.606h-3.395a1.749 1.749 0 0 1-1.748-1.749V3.463h-6.48Zm7.92 1.018 2.685 2.685h-2.377a.308.308 0 0 1-.308-.309V4.481ZM4.893 2.836a2.777 2.777 0 0 1 1.964-.813h7.2a.72.72 0 0 1 .51.21l5.142 5.144a.72.72 0 0 1 .21.509V19.2a2.777 2.777 0 0 1-2.776 2.777H6.857A2.777 2.777 0 0 1 4.08 19.2V4.8c0-.737.292-1.443.813-1.964Zm10.702 9.684a.72.72 0 0 1 0 1.018l-4.115 4.114a.72.72 0 0 1-1.018 0l-2.057-2.057a.72.72 0 1 1 1.018-1.018l1.548 1.548 3.605-3.605a.72.72 0 0 1 1.019 0Z" clip-rule="evenodd"/>
</svg>
